!!!COM: Scriabin, Alexander
!!!OTL@@FR: Prélude en mi bémol majeur
!!!OTL@@EN: Prelude in Eb Major
!!!OPR@@FR: 3 Morceaux
!!!OPR@@EN: 3 Pieces
!!!OPS: 45
!!!ONM: 3
!!!ODT: 1904
!!!AGN: Prelude
**kern	**kern	**dynam
*staff2	*staff1	*staff1/2
*Ipiano	*Ipiano	*
*clefF4	*clefG2	*
*k[b-e-a-]	*k[b-e-a-]	*
*E-:	*E-:	*
*M3/4	*M3/4	*
=1	=1	=1
*^	*^	*
4F-X	4r	4d 4a-	12ccL	p
.	.	.	12.an	.
.	.	.	24b-Jk	.
4E-	4An	4d-X 4g	8dd-XL	.
.	.	.	8ccJ	.
12DL	4B-	4G	8dnL	<
12D-X	.	.	.	(
.	.	.	8e-J	(
12CJ	.	.	.	[
=2	=2	=2	=2	=2
4C-X	4An	4G 4e-	4g	.
*	*	*v	*v	*
*v	*v	*	*
16r	32AnLLL	pp
.	32g	.
16ALL	32e-	.
.	32g	.
16e-	32an	.
.	32gg	.
16gJJ	32ee-	.
.	32ggJJJ	.
*clefG2	*	*
8ee-	8eee- 8ggg	.
8r	8r	.
*clefF4	*	*
!!LO:LB:g=original
=3	=3	=3
*^	*^	*
4C-X	4r	4An 4e-	12gL	.
.	.	.	12.en	.
.	.	.	24fJk	.
4BB-	4En	4A-X 4d	8a-XL	.
.	.	.	8gJ	.
*	*	*clefF4	*clefF4	*
12AAnL	4F	4D	8AnL	<
12AA-X	.	.	.	(
.	.	.	8B-J	(
12GGJ	.	.	.	[
=4	=4	=4	=4	=4
4GG-X	4En	4B-	4d	.
*	*	*v	*v	*
*v	*v	*	*
16r	32EnLLL	pp
.	32d	.
16ELL	32B-	.
.	32d	.
*	*clefG2	*
16B-	32en	.
.	32dd	.
16dJJ	32b-	.
.	32ddJJJ	.
8b-	8bb- 8ddd	.
8r	8r	.
!!LO:LB:g=original
=5	=5	=5
*^	*^	*
2.GG-X	2.F-X	2.B-	12g-XL	.
.	.	.	12dn	.
.	.	.	12e-J	.
.	.	.	8b-L	.
.	.	.	8a-J	.
.	.	.	[4c	.
=6	=6	=6	=6	=6
2.CC-X 2.GG-X	4F-X	4B-	16cLL]	.
.	.	.	16d-X	.
.	.	.	16dn	.
.	.	.	16e-JJ	.
.	2E-	4.c-X	8a--	.
.	.	.	4g-X	.
.	.	8r	8B-	.
=7	=7	=7	=7	=7
2.FF	2.E-	2.A	12AnL	.
.	.	.	12gn	.
.	.	.	12dJ	.
*	*	*	*^	*
.	.	.	2c#X	4.c#X	.
.	.	.	.	8g	.
*	*	*	*v	*v	*
!!LO:LB:g=original
=8	=8	=8	=8	=8
4BBB- 4FF	4E-	4An 4c#X	8gL	>
.	.	.	8g-XJ	)
*v	*v	*	*	*
8D/	8B- 8d	8f	]
8G	4d 4a-X	4ccn	p
8G-XL	.	.	.
8FJ	8d 8a-	8cc	.
=9	=9	=9	=9
*^	*	*	*
4F-X	4r	4d 4a-	12ccL	.
.	.	.	12.an	.
.	.	.	24b-Jk	.
4E-	4An	4d-X 4g	8dd-XL	.
.	.	.	8ccJ	.
12DL	4B-	4G	8dnL	<
12D-X	.	.	.	(
.	.	.	8e-J	(
12CJ	.	.	.	[
=10	=10	=10	=10	=10
4C-X	4An	4G 4e-	4g	.
*	*	*v	*v	*
*v	*v	*	*
16r	32AnLLL	pp
.	32g	.
16ALL	32e-	.
.	32g	.
16e-	32an	.
.	32gg	.
16gJJ	32ee-	.
.	32ggJJJ	.
*clefG2	*	*
8ee-	8eee- 8ggg	.
8r	8r	.
*clefF4	*	*
!!LO:LB:g=original
=11	=11	=11
*^	*^	*
4C-X	4r	4An 4e-	12gL	.
.	.	.	12.en	.
.	.	.	24fJk	.
4BB-	4En	4A-X 4d	8a-XL	.
.	.	.	8gJ	.
*	*	*clefF4	*clefF4	*
12AAnL	4F	4D	8AnL	<
12AA-X	.	.	.	(
.	.	.	8B-J	(
12GGJ	.	.	.	[
=12	=12	=12	=12	=12
4GG-X	4En	4B-	4d	.
*	*	*v	*v	*
*v	*v	*	*
16r	32EnLLL	pp
.	32d	.
16ELL	32B-	.
.	32d	.
*	*clefG2	*
16B-	32en	.
.	32dd	.
16dJJ	32b-	.
.	32ddJJJ	.
8a-	8bb- 8ddd	.
8r	8r	.
!!LO:LB:g=original
=13	=13	=13
*^	*^	*
2.C-X	2.B--	2.e-	12e-L	f
.	.	.	12g	.
.	.	.	12a-J	.
.	.	.	8ee-L	.
.	.	.	8dd-XJ	.
.	.	.	[4f	.
=14	=14	=14	=14	=14
2.FF-X 2.C-X	4B--	4e-	16fLL]	.
.	.	.	16g-X	.
.	.	.	16gn	.
.	.	.	16a-JJ	.
.	2A-	4.f-X	8dd--	.
.	.	.	4cc-X	.
.	.	8r	8e-	.
=15	=15	=15	=15	=15
2.BB-	2.A-	2.dn	12dL	.
.	.	.	12ccn	.
.	.	.	12gJ	.
.	.	.	4.f#X	.
.	.	.	8f#	.
*v	*v	*	*	*
!!LO:LB:g=original
=16	=16	=16	=16
4EE- 4BB- 4G	4e- 4g	4b-	.
*	*v	*v	*
16r	32B-LLL	.
.	32g	.
16B-LL	32e-	.
.	32g	.
16e-	32b-	.
.	32gg	.
16gJJ	32ee-	.
.	32ggJJJ	.
*clefG2	*	*
8ee-L	8eee- 8ggg	.
*clefF4	*	*
8D-XJ	8r	.
=17	=17	=17
*^	*^	*
2.C-X	2.B--	2.e-	12e-L	.
.	.	.	12g	.
.	.	.	12a-J	.
.	.	.	8ee-L	.
.	.	.	8dd-XJ	.
.	.	.	[4f	.
!!LO:LB:g=original
=18	=18	=18	=18	=18
2.FF-X 2.C-X	4B--	4e-	16fLL]	.
.	.	.	16g-X	.
.	.	.	16gn	.
.	.	.	16a-JJ	.
.	2A-	4.f-X	8dd--	.
.	.	.	4cc-X	.
.	.	8r	8e-	.
=19	=19	=19	=19	=19
2.BB-	2.A-	2.dn	12dL	.
.	.	.	12ccn	.
.	.	.	12gJ	.
.	.	.	[2f#X	.
*v	*v	*	*	*
=20	=20	=20	=20
2.BBB- 2.BB-	2.A- 2.d	2f#]	.
.	.	4f#X	.
*	*v	*v	*
=21	=21	=21
[2.EEE- [2.EE- [2.BB-	[2.G [2.e- [2.b-	.
=22	=22	=22
2.EEE-] 2.EE-] 2.BB-]	2.G] 2.e-] 2.b-]	.
==	==	==
*-	*-	*-
!!!system-decoration: {(*)}
!!!filter: flipper -a
!!!ENC: Bryan Jacob Bell
!!!END: November 2021 to April 2022
!!!PED: Günter Philipp
!!!PTL: Ausgewählte Klavierwerke (Edition Peters)
